X:219 
T:Union Reel, The
F:file ID: cre.5/219union
B:CRE5.186 (Ril na hAontachta)
S:Joe Derrane
N:Joe plays this AA-B-AA-CC-AA (cf. file ID mvbt/212union)
I have another setting of this provided by Joe in the MVBT 
folder (file ID mvbt/212union). De Danann used JoeÃÂÃÂ¢ÃÂ¢ÃÂÃÂ¬ÃÂ¢ÃÂÃÂ¢s setting
in their recording of this tune.
Q:180
M:C
R:reel
K:A
"PART A"
e2 (3cBA eA (3cBA|eA (3cBA Bcdf|e2 (3cBA eA (3cBA|(3Bcd (3cBA BAFf|
e2 (3cBA eA (3cBA|eA (3cBA Bcdf|(3efe ce dcBA|FABc (3ded df|
e2 (3cBA eA (3cBA|eA (3cBA Bcdf|e2 (3cBA eA (3cBA|(3Bcd (3cBA BAFf|
e2 (3cBA eA (3cBA|eA (3cBA Bcdf|(3efe ce dcBA|FABc dABc|
P:PART B
K:D
dAFA dfec|dAFG A2Bc|dAFA dfec|dcBA FABc|
dFFF dfec|dAFG A2Bc|dAFA dfec|dcBA FAdf||
P:Part A repeated
K:A
e2 (3cBA eA (3cBA|eA (3cBA Bcdf|e2 (3cBA eA (3cBA|(3Bcd (3cBA BAFf|
e2 (3cBA eA (3cBA|eA (3cBA Bcdf|(3efe ce dcBA|FABc d=cBA|
P:Part C
K:G
(3|:GAG BG F2AF|G2Bd gedf|e2ce dBGB|A2FA DAFA|
(3GAG BG F2AF|G2Bd gedf|e2ce dBGB|1 (3ABA FA GDdP:|2 (3ABA FA GAdf  ||

%%%

